X:1
T:Title
%%score { ( 1 3 ) | ( 2 4 ) }
L:1/8
Q:1/4=96
M:4/4
K:D
V:1 treble nm="Grand Piano"
V:3 treble 
V:2 bass 
V:4 bass 
V:1
 FFF[EG] [FA] [FA]3 | [GB][Bd][Ac][GB] [FA]4 | [DF][FA][FB][FA] [DF][FA][FB][FA] | %3
w: Chas.~H.~Gabriel * * * * *|||
 [CGA]2 [G,A,C]2 [G,A,C]4 | [CEG][CEG][=C^DF][^CEG] [EGc] [EGc]3 | [DGB][DFA][D=F^G][D^FA] [DFd]4 | %6
w: |||
 [^Gd][EB][Ec][Ed] [CEe][DEG][EA][Fd] | c2 B2 z2 G2 | [Fd][Fd][Fd][Fc] [Ge] [Fd]3 | %9
w: |||
 [Gd][Gc][Gc][GB] [Gc]4 | [ce][ce][ce][ce] [ce][Bd][Ac][GB] | [A,FA]2 [A,EG]2 [A,DF]4 | %12
w: |||
 [Fd][Fd][Fd][Fc] [Fe] [Fd]3 | [Fd][FA][GB][A=c] B4 | ddcB AAAG | F2 [CE]2 D4 |] %16
w: ||||
V:2
 [D,A,D][D,A,D][D,A,D][D,A,] [D,D] [D,D]3 | [G,D][G,D][G,D][G,D] [D,D]4 | %2
 [D,A,][D,D][D,D][D,D] [D,A,][D,D][D,D][D,D] | E,2 E,2 E,4 | A,,A,,A,,A,, A,, A,,3 | %5
 D,D,D,D, B,,4 | [E,B,][D,^G,][C,A,][B,,B,] A,,B,,C,[D,A,] | z4 C2 z2 | %8
 [D,A,][D,A,][D,A,][D,A,] [D,A,] [D,A,]3 | z4 A,4 | A,A,A,A, A,A,A,A, | A,,B,,C,A,, D,4 | %12
 [D,A,][D,A,][D,A,][D,A,] [D,A,] [D,A,]3 | [D,A,][D,D][D,D][F,D][K:treble] [G,DG]4 | %14
 [^G,B,=F][G,B,F][G,B,F][G,DF] [A,D^F][=G,C=F][K:bass][F,D][G,B,D] | [A,D]2 [A,,G,]2 [D,F,]4 |] %16
V:3
 x8 | x8 | x8 | x8 | x8 | x8 | x8 | z4 A4 | x8 | x8 | x8 | x8 | x8 | x8 | x8 | x8 |] %16
V:4
 x8 | x8 | x8 | x8 | x8 | x8 | x8 | [E,A,E]2 [E,^G,D]2 A,4 | x8 | %9
 [E,A,][E,A,][E,A,][E,A,] z A,,C,E, | x8 | x8 | x8 | x4[K:treble] x4 | x6[K:bass] x2 | x8 |] %16

